X:223
T:Trip to Athlone
S:Niamh Ni Charra
Z:robin.beech@mcgill.ca
R:jig
M:6/8
L:1/8
K: D
ABA D2d | d=cA AGE | ABD ABc | dAB cde |
ABA DdD | d=cA AGE | GEG Ade |1 fdc d2B :|2  fdc d2e |:
fed edc | A2d cde | fed edc | ABc def |
g2g age | d=cA AGE | GEG Ade |1 fdc d2e :|2  fdc d2B |]
